!!!OTL: Jesus im Tempel (3-4), S. 21
!!!id: P0975
**kern
*clefG2
*k[b-]
*g:
{4f
=1
4b-
4b-
4a
4g
=2
2f}
4r
=3
{4f
=4
4b-
4b-
8cc
8b-
4cc
=5
2dd}
4r
=6
{8b-
8cc
=7
4dd
4dd
8dd
8cc
4b-
=8
2cc}
4r
=9
{4dd
=10
4b-
4a
8g
8f
4g
=11
2a}
4r
=12
{4f
=13
4b-
4b-
4cc
4cc
=14
2dd}
4r
=15
{4cc
=16
4a
8a
8cc
4b-
4a
=17
2g}
4r
==
*-
!!!minrhy: 8
!!!meters: 4/4 ]  ZZ[6
!!!cut: Jesus im Tempel (3-4), S. 21
!!!reg: Lothringen
!!!trd: PINCK, Louis: Verklingende Weisen, Bd3, Metz 1933
!!!rhy1: X_  X_X_X_X_  X__0_
!!!rhy2: X_  X_X_XXX_  X__0_
!!!key: P0975  08  G 4/4 ]  ZZ[6
!!!mod: SECHSTONSKALA MOLL ?]  AMBITUS[6
!!!kad: -7b54251
!!!akz: 3b2-7b_3b45_554_3b12_3b45_23b1_
!!!fot: 'a__b__c__d__bv_e__
!!!for: 'a__b__bv_b__a__c__
!!!fok: '^__/__/__Vd_/__\__
!! PHRAS[AUFTAKTIG]
!!!fkt: yyy
!! LOTH VKL
!! PR[15] 2K[2] 2G[13] 3K[0] 3G[10] 4A[10] 4Ü[0] 5A[2] 6K[0] 6G[0]
!! 7K[0] 7G[0] 8A[0] MEHR[0] SI[37] ABS[52] SR[15] SP[21]
!! ST[21] 2k[4] 2g[33] 3k[2] 3g[4] 4d[6] 4ü[0] 5d[0] 6k[0] 6g[0]
!! 7k[0] 7g[0] 8d[0] mehr[0] si[48] dm[-11] sr[37] sp[12]
!! 1F[16] 2F[3] 3F[55] 4F[16] LF[0] 2P[2] 3P[7] 4P[2] TRI[2] DF[7] AB[58]
!! TF[0] U3K[0] U3[0] U4[0] U4Ü[0] U5[13] U6K[0] U6[4] U7K[0] U7[4]
!! N1[36] N2K[0] N2[21] N3K[0] N3[21] N4[2] N4Ü[0] N5[0] N6K[0] N6[0]
!!!n7k: 0] N7[0] O1[0] O2K[0] O2[0] O3K[0] O3[0] HÖ[0
